storage/app/icons/phosphoricons/regular/hard-hat.svg

<svg xmlns="http://www.w3.org/2000/svg" fill="currentColor" viewBox="0 0 256 256"><path d="M224 152v-16a96.37 96.37 0 0 0-64-90.51V40a16 16 0 0 0-16-16h-32a16 16 0 0 0-16 16v5.49A96.37 96.37 0 0 0 32 136v16a16 16 0 0 0-16 16v24a16 16 0 0 0 16 16h192a16 16 0 0 0 16-16v-24a16 16 0 0 0-16-16m-16-16v16h-48V62.67A80.36 80.36 0 0 1 208 136m-64-96v112h-32V40Zm-96 96a80.36 80.36 0 0 1 48-73.33V152H48Zm176 56H32v-24h192z"/></svg>

<svg xmlns="http://www.w3.org/2000/svg" viewBox="0 0 256 256" fill="currentColor"><path d="M224,152V136a96.37,96.37,0,0,0-64-90.51V40a16,16,0,0,0-16-16H112A16,16,0,0,0,96,40v5.49A96.37,96.37,0,0,0,32,136v16a16,16,0,0,0-16,16v24a16,16,0,0,0,16,16H224a16,16,0,0,0,16-16V168A16,16,0,0,0,224,152Zm-16-16v16H160V62.67A80.36,80.36,0,0,1,208,136ZM144,40V152H112V40ZM48,136A80.36,80.36,0,0,1,96,62.67V152H48Zm176,56H32V168H224v24Z"/></svg>
